app/assets/images/Contenido/Odin/Mascotas.svg

<svg fill="none" height="130" viewBox="0 0 117 130" width="117" xmlns="http://www.w3.org/2000/svg"><circle cx="57.8345" cy="45.4964" r="44.3397" stroke="#000" stroke-width="2.31337"/><g fill="#000"><path d="m27.7226 124.873h-2.4983l-.0203-9.425-4.6717 7.8h-1.1781l-4.6716-7.678v9.303h-2.5187v-14.218h2.1734l5.6466 9.424 5.545-9.424h2.1734zm7.7403-10.968c3.128 0 4.9357 1.482 4.9357 4.61v6.358h-2.3968v-1.32c-.6093.934-1.7874 1.462-3.4123 1.462-2.478 0-4.042-1.361-4.042-3.25 0-1.807 1.2187-3.229 4.5092-3.229h2.803v-.163c0-1.482-.8938-2.356-2.7015-2.356-1.2187 0-2.478.406-3.2905 1.077l-.9952-1.849c1.1577-.893 2.8436-1.34 4.5904-1.34zm-.3453 9.262c1.239 0 2.3155-.569 2.7421-1.686v-1.259h-2.6202c-1.7265 0-2.1937.65-2.1937 1.442 0 .914.7719 1.503 2.0718 1.503zm11.8908 1.848c-1.8077 0-3.6154-.528-4.5904-1.219l.975-1.929c.9546.63 2.4171 1.076 3.7779 1.076 1.6046 0 2.2749-.446 2.2749-1.198 0-2.072-6.7028-.122-6.7028-4.448 0-2.052 1.8484-3.392 4.7732-3.392 1.4422 0 3.0874.345 4.0623.934l-.9749 1.93c-1.0359-.61-2.0718-.813-3.1077-.813-1.5437 0-2.2749.508-2.2749 1.219 0 2.194 6.7028.244 6.7028 4.489 0 2.031-1.8686 3.351-4.9154 3.351zm12.0783 0c-3.4327 0-5.8701-2.315-5.8701-5.565s2.4374-5.545 5.8701-5.545c2.1124 0 3.7983.873 4.631 2.518l-1.9499 1.138c-.6499-1.036-1.6249-1.503-2.7014-1.503-1.8687 0-3.2905 1.3-3.2905 3.392 0 2.112 1.4218 3.392 3.2905 3.392 1.0765 0 2.0515-.467 2.7014-1.503l1.9499 1.137c-.8327 1.625-2.5186 2.539-4.631 2.539zm11.5419 0c-3.3311 0-5.7685-2.315-5.7685-5.565s2.4374-5.545 5.7685-5.545c3.3717 0 5.7888 2.295 5.7888 5.545s-2.4171 5.565-5.7888 5.565zm0-2.173c1.8483 0 3.2295-1.32 3.2295-3.392s-1.3812-3.392-3.2295-3.392c-1.8281 0-3.2092 1.32-3.2092 3.392s1.3811 3.392 3.2092 3.392zm14.0258-.366.7109 1.808c-.6094.487-1.5234.731-2.4374.731-2.3765 0-3.7373-1.259-3.7373-3.656v-5.22h-1.7875v-2.031h1.7875v-2.478h2.5389v2.478h2.9046v2.031h-2.9046v5.159c0 1.056.5281 1.625 1.5031 1.625.5281 0 1.0359-.142 1.4218-.447zm6.943-8.571c3.128 0 4.9358 1.482 4.9358 4.61v6.358h-2.3968v-1.32c-.6094.934-1.7874 1.462-3.4124 1.462-2.478 0-4.042-1.361-4.042-3.25 0-1.807 1.2187-3.229 4.5092-3.229h2.803v-.163c0-1.482-.8937-2.356-2.7014-2.356-1.2187 0-2.478.406-3.2905 1.077l-.9953-1.849c1.1578-.893 2.8436-1.34 4.5904-1.34zm-.3453 9.262c1.2391 0 2.3156-.569 2.7421-1.686v-1.259h-2.6202c-1.7265 0-2.1936.65-2.1936 1.442 0 .914.7718 1.503 2.0717 1.503zm11.8909 1.848c-1.808 0-3.6155-.528-4.5904-1.219l.9749-1.929c.9545.63 2.4175 1.076 3.7775 1.076 1.605 0 2.275-.446 2.275-1.198 0-2.072-6.7024-.122-6.7024-4.448 0-2.052 1.8484-3.392 4.7734-3.392 1.442 0 3.087.345 4.062.934l-.975 1.93c-1.036-.61-2.072-.813-3.108-.813-1.543 0-2.274.508-2.274 1.219 0 2.194 6.702.244 6.702 4.489 0 2.031-1.868 3.351-4.915 3.351z"/><path d="m62.6875 48.468c-.6469 0-1.1719.525-1.1719 1.1719s.525 1.1719 1.1719 1.1719 1.1719-.525 1.1719-1.1719-.525-1.1719-1.1719-1.1719z"/><path d="m73.1432 54.7776c-1.0985-1.0979-3.7625-4.0696-5.8642-8.8888-1.5628-3.7498-5.1969-6.1722-9.2611-6.1722-4.0633 0-7.6969 2.4228-9.26 6.1734-2.6368 6.0476-6.2389 9.248-6.2734 9.2782-.0043.0036-.0084.0074-.0125.011-2.1246 1.9023-3.3431 4.6274-3.3431 7.4765 0 3.4829 1.6586 6.5119 4.5358 8.431 2.6807 1.7886 6.0034 2.3248 9.1153 1.4716 1.5595-.4273 3.3646-.6532 5.2204-.6532 1.887 0 3.7188.2334 5.2972.675 3.0205.8455 6.3359.3819 9.0728-1.4264 2.9102-1.923 4.5975-4.9805 4.5975-8.498 0-3.0937-1.3929-5.9607-3.8247-7.8781zm-2.0652 14.4206c-2.112 1.3954-4.7177 1.8053-7.149 1.1248-1.7814-.4984-3.8315-.7617-5.929-.7617-2.062 0-4.0813.2548-5.8399.7367-2.457.6737-5.0794.2505-7.1951-1.1609-2.209-1.4736-3.4927-3.7774-3.4927-6.4815 0-2.1814.9324-4.2681 2.5581-5.7262.2501-.2192 4.0531-3.624 6.8796-10.1121.0026-.0061.0053-.0122.0078-.0183 1.1962-2.8786 3.9829-4.7386 7.0997-4.7386 3.1179-.0001 5.9052 1.8595 7.1011 4.7374.0024.0061.0051.0122.0077.0183 2.2952 5.2676 5.2505 8.5196 6.4144 9.6734.0335.033.0689.0642.1059.093 1.8921 1.4702 2.9772 3.6837 2.9772 6.0731.0002 2.7266-1.3043 5.0616-3.5458 6.5426z"/><path d="m65.8799 53.1332c-.3532-.5422-1.079-.6958-1.6215-.3425-.5425.3534-.6957 1.0794-.3425 1.6216 1.7832 2.7379 3.474 4.5613 4.3234 5.4046.4591.4559 1.2011.4534 1.6574-.0059.4559-.4593.4532-1.2013-.006-1.6574-.7833-.7777-2.3459-2.4639-4.0108-5.0204z"/><path d="m54.2021 34.0034c1.1261-1.9682 1.5955-4.5823 1.288-7.1713-.5948-5.0406-4.0712-9.2632-7.9551-8.7968-1.7539.2075-3.3132 1.3588-4.3914 3.2416-1.1254 1.9667-1.5948 4.5808-1.288 7.1717.9716 8.2318 8.6348 12.0384 12.3465 5.5548zm-9.0244-11.5622c.6415-1.1207 1.6422-2.0952 2.9321-2.0952 2.3063 0 4.6203 3.096 5.053 6.7616.2496 2.1015-.113 4.1906-.9947 5.7317-2.7008 4.7184-7.3469.7404-7.9851-4.6659-.249-2.1031.1137-4.1925.9947-5.7322z"/><path d="m42.9769 46.6075c.3393-2.0886-.073-4.3985-1.1607-6.5043-1.0882-2.1062-2.7338-3.7793-4.6337-4.7111-2.0179-.9898-4.0844-1.0409-5.8188-.1441-1.7344.8962-2.8877 2.611-3.2479 4.829-.3393 2.0888.073 4.3985 1.1607 6.5045 1.0883 2.1056 2.7339 3.7784 4.6338 4.7102 1.8856.9249 3.9746 1.0977 5.8184.1451 1.7346-.8961 2.8882-2.6113 3.2482-4.8293zm-4.3239 2.747c-1.0582.5471-2.3758.4876-3.7105-.167-1.4519-.7121-2.7246-2.0199-3.5837-3.682-.8586-1.6623-1.1889-3.4566-.9296-5.0528.2382-1.467.9523-2.5757 2.0107-3.1225l.0003-.0002c1.1703-.605 2.5256-.4147 3.7102.1663 1.4518.7121 2.7245 2.0201 3.5836 3.6827.8586 1.6623 1.1888 3.4568.9296 5.0529-.2381 1.467-.9522 2.5758-2.0106 3.1226z"/><path d="m66.7889 37.3015c3.5526 0 6.7955-3.8786 7.3827-8.8304.624-5.2751-2.0338-10.4465-6.2555-10.4465-3.5531 0-6.7957 3.8788-7.3815 8.8305-.6247 5.2847 2.0409 10.4464 6.2543 10.4464zm-3.9267-10.1712c.4338-3.6653 2.7483-6.762 5.0542-6.762.1085 0 .202.0052.2858.0161 1.2496.1389 2.2168 1.231 2.7866 2.346.7751 1.5165 1.0868 3.5085.8555 5.465-.4504 3.7973-2.9673 7.0543-5.3411 6.7462-.0043-.0005-.0087-.001-.013-.0016-1.0656-.1254-2.0763-.9797-2.7729-2.3438-.7748-1.5166-1.0864-3.5088-.8551-5.4659z"/><path d="m87.8844 40.0817c-.7411-4.564-4.8668-6.7458-9.0667-4.6849-3.9292 1.9275-6.4965 6.8927-5.7944 11.2155.7499 4.6181 4.9167 6.7201 9.0665 4.6843 3.9304-1.9279 6.4966-6.8925 5.7946-11.2149zm-6.8267 9.1105c-1.3346.6545-2.6522.7137-3.7106.167v.0001c-1.0583-.5469-1.7724-1.6559-2.0105-3.1227-.5358-3.2995 1.5044-7.2594 4.5133-8.7358 2.7574-1.3527 5.2281-.0791 5.7211 2.9565.5349 3.2934-1.4989 7.2565-4.5133 8.7349z"/></g></svg>

<svg width="117" height="130" viewBox="0 0 117 130" fill="none" xmlns="http://www.w3.org/2000/svg">
<circle cx="57.8345" cy="45.4964" r="44.3397" stroke="black" stroke-width="2.31337"/>
<path d="M27.7226 124.873H25.2243L25.204 115.448L20.5323 123.248H19.3542L14.6826 115.57V124.873H12.1639V110.655H14.3373L19.9839 120.079L25.5289 110.655H27.7023L27.7226 124.873ZM35.4629 113.905C38.5909 113.905 40.3986 115.387 40.3986 118.515V124.873H38.0018V123.553C37.3925 124.487 36.2144 125.015 34.5895 125.015C32.1115 125.015 30.5475 123.654 30.5475 121.765C30.5475 119.958 31.7662 118.536 35.0567 118.536H37.8597V118.373C37.8597 116.891 36.9659 116.017 35.1582 116.017C33.9395 116.017 32.6802 116.423 31.8677 117.094L30.8725 115.245C32.0302 114.352 33.7161 113.905 35.4629 113.905ZM35.1176 123.167C36.3566 123.167 37.4331 122.598 37.8597 121.481V120.222H35.2395C33.513 120.222 33.0458 120.872 33.0458 121.664C33.0458 122.578 33.8177 123.167 35.1176 123.167ZM47.0084 125.015C45.2007 125.015 43.393 124.487 42.418 123.796L43.393 121.867C44.3476 122.497 45.8101 122.943 47.1709 122.943C48.7755 122.943 49.4458 122.497 49.4458 121.745C49.4458 119.673 42.743 121.623 42.743 117.297C42.743 115.245 44.5914 113.905 47.5162 113.905C48.9584 113.905 50.6036 114.25 51.5785 114.839L50.6036 116.769C49.5677 116.159 48.5318 115.956 47.4959 115.956C45.9522 115.956 45.221 116.464 45.221 117.175C45.221 119.369 51.9238 117.419 51.9238 121.664C51.9238 123.695 50.0552 125.015 47.0084 125.015ZM59.0867 125.015C55.654 125.015 53.2166 122.7 53.2166 119.45C53.2166 116.2 55.654 113.905 59.0867 113.905C61.1991 113.905 62.885 114.778 63.7177 116.423L61.7678 117.561C61.1179 116.525 60.1429 116.058 59.0664 116.058C57.1977 116.058 55.7759 117.358 55.7759 119.45C55.7759 121.562 57.1977 122.842 59.0664 122.842C60.1429 122.842 61.1179 122.375 61.7678 121.339L63.7177 122.476C62.885 124.101 61.1991 125.015 59.0867 125.015ZM70.6286 125.015C67.2975 125.015 64.8601 122.7 64.8601 119.45C64.8601 116.2 67.2975 113.905 70.6286 113.905C74.0003 113.905 76.4174 116.2 76.4174 119.45C76.4174 122.7 74.0003 125.015 70.6286 125.015ZM70.6286 122.842C72.4769 122.842 73.8581 121.522 73.8581 119.45C73.8581 117.378 72.4769 116.058 70.6286 116.058C68.8005 116.058 67.4194 117.378 67.4194 119.45C67.4194 121.522 68.8005 122.842 70.6286 122.842ZM84.6544 122.476L85.3653 124.284C84.7559 124.771 83.8419 125.015 82.9279 125.015C80.5514 125.015 79.1906 123.756 79.1906 121.359V116.139H77.4031V114.108H79.1906V111.63H81.7295V114.108H84.6341V116.139H81.7295V121.298C81.7295 122.354 82.2576 122.923 83.2326 122.923C83.7607 122.923 84.2685 122.781 84.6544 122.476ZM91.5974 113.905C94.7254 113.905 96.5332 115.387 96.5332 118.515V124.873H94.1364V123.553C93.527 124.487 92.349 125.015 90.724 125.015C88.246 125.015 86.682 123.654 86.682 121.765C86.682 119.958 87.9007 118.536 91.1912 118.536H93.9942V118.373C93.9942 116.891 93.1005 116.017 91.2928 116.017C90.0741 116.017 88.8148 116.423 88.0023 117.094L87.007 115.245C88.1648 114.352 89.8506 113.905 91.5974 113.905ZM91.2521 123.167C92.4912 123.167 93.5677 122.598 93.9942 121.481V120.222H91.374C89.6475 120.222 89.1804 120.872 89.1804 121.664C89.1804 122.578 89.9522 123.167 91.2521 123.167ZM103.143 125.015C101.335 125.015 99.5275 124.487 98.5526 123.796L99.5275 121.867C100.482 122.497 101.945 122.943 103.305 122.943C104.91 122.943 105.58 122.497 105.58 121.745C105.58 119.673 98.8776 121.623 98.8776 117.297C98.8776 115.245 100.726 113.905 103.651 113.905C105.093 113.905 106.738 114.25 107.713 114.839L106.738 116.769C105.702 116.159 104.666 115.956 103.63 115.956C102.087 115.956 101.356 116.464 101.356 117.175C101.356 119.369 108.058 117.419 108.058 121.664C108.058 123.695 106.19 125.015 103.143 125.015Z" fill="black"/>
<path d="M62.6875 48.468C62.0406 48.468 61.5156 48.993 61.5156 49.6399C61.5156 50.2868 62.0406 50.8118 62.6875 50.8118C63.3344 50.8118 63.8594 50.2868 63.8594 49.6399C63.8594 48.993 63.3344 48.468 62.6875 48.468Z" fill="black"/>
<path d="M73.1432 54.7776C72.0447 53.6797 69.3807 50.708 67.279 45.8888C65.7162 42.139 62.0821 39.7166 58.0179 39.7166C53.9546 39.7166 50.321 42.1394 48.7579 45.89C46.1211 51.9376 42.519 55.138 42.4845 55.1682C42.4802 55.1718 42.4761 55.1756 42.472 55.1792C40.3474 57.0815 39.1289 59.8066 39.1289 62.6557C39.1289 66.1386 40.7875 69.1676 43.6647 71.0867C46.3454 72.8753 49.6681 73.4115 52.78 72.5583C54.3395 72.131 56.1446 71.9051 58.0004 71.9051C59.8874 71.9051 61.7192 72.1385 63.2976 72.5801C66.3181 73.4256 69.6335 72.962 72.3704 71.1537C75.2806 69.2307 76.9679 66.1732 76.9679 62.6557C76.9679 59.562 75.575 56.695 73.1432 54.7776ZM71.078 69.1982C68.966 70.5936 66.3603 71.0035 63.929 70.323C62.1476 69.8246 60.0975 69.5613 58 69.5613C55.938 69.5613 53.9187 69.8161 52.1601 70.298C49.7031 70.9717 47.0807 70.5485 44.965 69.1371C42.756 67.6635 41.4723 65.3597 41.4723 62.6556C41.4723 60.4742 42.4047 58.3875 44.0304 56.9294C44.2805 56.7102 48.0835 53.3054 50.91 46.8173C50.9126 46.8112 50.9153 46.8051 50.9178 46.799C52.114 43.9204 54.9007 42.0604 58.0175 42.0604C61.1354 42.0603 63.9227 43.9199 65.1186 46.7978C65.121 46.8039 65.1237 46.81 65.1263 46.8161C67.4215 52.0837 70.3768 55.3357 71.5407 56.4895C71.5742 56.5225 71.6096 56.5537 71.6466 56.5825C73.5387 58.0527 74.6238 60.2662 74.6238 62.6556C74.624 65.3822 73.3195 67.7172 71.078 69.1982Z" fill="black"/>
<path d="M65.8799 53.1332C65.5267 52.591 64.8009 52.4374 64.2584 52.7907C63.7159 53.1441 63.5627 53.8701 63.9159 54.4123C65.6991 57.1502 67.3899 58.9736 68.2393 59.8169C68.6984 60.2728 69.4404 60.2703 69.8967 59.811C70.3526 59.3517 70.3499 58.6097 69.8907 58.1536C69.1074 57.3759 67.5448 55.6897 65.8799 53.1332Z" fill="black"/>
<path d="M54.2021 34.0034C55.3282 32.0352 55.7976 29.4211 55.4901 26.8321C54.8953 21.7915 51.4189 17.5689 47.535 18.0353C45.7811 18.2428 44.2218 19.3941 43.1436 21.2769C42.0182 23.2436 41.5488 25.8577 41.8556 28.4486C42.8272 36.6804 50.4904 40.487 54.2021 34.0034ZM45.1777 22.4412C45.8192 21.3205 46.8199 20.346 48.1098 20.346C50.4161 20.346 52.7301 23.442 53.1628 27.1076C53.4124 29.2091 53.0498 31.2982 52.1681 32.8393C49.4673 37.5577 44.8212 33.5797 44.183 28.1734C43.934 26.0703 44.2967 23.9809 45.1777 22.4412Z" fill="black"/>
<path d="M42.9769 46.6075C43.3162 44.5189 42.9039 42.209 41.8162 40.1032C40.728 37.997 39.0824 36.3239 37.1825 35.3921C35.1646 34.4023 33.0981 34.3512 31.3637 35.248C29.6293 36.1442 28.476 37.859 28.1158 40.077C27.7765 42.1658 28.1888 44.4755 29.2765 46.5815C30.3648 48.6871 32.0104 50.3599 33.9103 51.2917C35.7959 52.2166 37.8849 52.3894 39.7287 51.4368C41.4633 50.5407 42.6169 48.8255 42.9769 46.6075ZM38.653 49.3545C37.5948 49.9016 36.2772 49.8421 34.9425 49.1875C33.4906 48.4754 32.2179 47.1676 31.3588 45.5055C30.5002 43.8432 30.1699 42.0489 30.4292 40.4527C30.6674 38.9857 31.3815 37.877 32.4399 37.3302L32.4402 37.33C33.6105 36.725 34.9658 36.9153 36.1504 37.4963C37.6022 38.2084 38.8749 39.5164 39.734 41.179C40.5926 42.8413 40.9228 44.6358 40.6636 46.2319C40.4255 47.6989 39.7114 48.8077 38.653 49.3545Z" fill="black"/>
<path d="M66.7889 37.3015C70.3415 37.3015 73.5844 33.4229 74.1716 28.4711C74.7956 23.196 72.1378 18.0246 67.9161 18.0246C64.363 18.0246 61.1204 21.9034 60.5346 26.8551C59.9099 32.1398 62.5755 37.3015 66.7889 37.3015ZM62.8622 27.1303C63.296 23.465 65.6105 20.3683 67.9164 20.3683C68.0249 20.3683 68.1184 20.3735 68.2022 20.3844C69.4518 20.5233 70.419 21.6154 70.9888 22.7304C71.7639 24.2469 72.0756 26.2389 71.8443 28.1954C71.3939 31.9927 68.877 35.2497 66.5032 34.9416C66.4989 34.9411 66.4945 34.9406 66.4902 34.94C65.4246 34.8146 64.4139 33.9603 63.7173 32.5962C62.9425 31.0796 62.6309 29.0874 62.8622 27.1303Z" fill="black"/>
<path d="M87.8844 40.0817C87.1433 35.5177 83.0176 33.3359 78.8177 35.3968C74.8885 37.3243 72.3212 42.2895 73.0233 46.6123C73.7732 51.2304 77.94 53.3324 82.0898 51.2966C86.0202 49.3687 88.5864 44.4041 87.8844 40.0817ZM81.0577 49.1922C79.7231 49.8467 78.4055 49.9059 77.3471 49.3592V49.3593C76.2888 48.8124 75.5747 47.7034 75.3366 46.2366C74.8008 42.9371 76.841 38.9772 79.8499 37.5008C82.6073 36.1481 85.078 37.4217 85.571 40.4573C86.1059 43.7507 84.0721 47.7138 81.0577 49.1922Z" fill="black"/>
</svg>
